X:1
T:Title
%%score { 1 | ( 2 3 ) }
L:1/8
Q:1/4=82
M:2/4
K:F
V:1 treble nm="Grand Piano"
V:2 bass 
V:3 bass 
V:1
 F>E FC | A>_A =AF | [Ac]>[_A=B] [=Ac]A | F[EG] A2 | F>E FC | A>_A =AF | [Ac]>[_A=B] [=Ac]A | %7
w: G.~F.~Root * * *|||||||
 Gd [Ec]2 | [EG]>[EG] [EG][FA] | [GB][Ac] [GB]/A/[CEG] | [CFA]>[CFA] [CFA][CGB] | %11
w: ||||
 [CAc][FBd] [Ac]/B/A | d>d cA | d>d cA | F>[CEG] [CFA][DFB] | [CFA][B,EG] [A,F]2 |] %16
w: |||||
V:2
 [F,A,C]>[F,_A,C] [F,=A,C][F,A,] | [F,CF]>[F,=B,F] [F,CF][F,A,] | [F,C]>[F,C] [F,C][F,F] | %3
 [D,A,][C,C] [F,CF]2 | [F,A,C]>[F,_A,C] [F,=A,C][F,A,] | [F,CF]>[F,=B,F] [F,CF][F,A,] | %6
 [F,C]>[F,C] [F,C][K:treble][F,CF] | [G,CE][G,=B,F][K:bass] [C,C]2 | [C,C]>[C,C] [C,C][C,C] | %9
 [C,C][C,C] z/ F/C, | F,>F, F,F, | F,F, z/[K:treble] G/[F,CF] | [B,F]>[B,F] [A,CF][F,CF] | %13
 [B,F]>[B,F] [A,CF][K:bass][F,F] | [D,A,]>C, F,B,, | C,C, F,2 |] %16
V:3
 x4 | x4 | x4 | x4 | x4 | x4 | x3[K:treble] x | x2[K:bass] x2 | x4 | z2 .[C,C]2 | x4 | %11
 z2 .[F,C]2[K:treble] | x4 | x3[K:bass] x | x4 | x4 |] %16

